assets/icons/qvision/screen_rotation.svg

<svg width="24" height="24" viewBox="0 0 24 24" fill="none" xmlns="http://www.w3.org/2000/svg">
<g clip-path="url(#clip0_147_2438)">
<path d="M16.48 2.52C19.75 4.07 22.09 7.24 22.45 11H23.95C23.44 4.84 18.29 0 12 0L11.34 0.03L15.15 3.84L16.48 2.52ZM10.23 1.75C9.63999 1.16 8.68999 1.16 8.10999 1.75L1.74999 8.11C1.15999 8.7 1.15999 9.65 1.74999 10.23L13.77 22.25C14.36 22.84 15.31 22.84 15.89 22.25L22.25 15.89C22.84 15.3 22.84 14.35 22.25 13.77L10.23 1.75ZM14.83 21.19L2.80999 9.17L9.16999 2.81L21.19 14.83L14.83 21.19ZM7.51999 21.48C4.24999 19.94 1.90999 16.76 1.54999 13H0.0499878C0.559988 19.16 5.70999 24 12 24L12.66 23.97L8.84999 20.16L7.51999 21.48Z" fill="#323232"/>
</g>
<defs>
<clipPath id="clip0_147_2438">
<rect width="24" height="24" fill="white"/>
</clipPath>
</defs>
</svg>

<svg xmlns="http://www.w3.org/2000/svg" height="24" viewBox="0 0 24 24" width="24"><path d="M0 0h24v24H0z" fill="none"/><path d="M16.48 2.52c3.27 1.55 5.61 4.72 5.97 8.48h1.5C23.44 4.84 18.29 0 12 0l-.66.03 3.81 3.81 1.33-1.32zm-6.25-.77c-.59-.59-1.54-.59-2.12 0L1.75 8.11c-.59.59-.59 1.54 0 2.12l12.02 12.02c.59.59 1.54.59 2.12 0l6.36-6.36c.59-.59.59-1.54 0-2.12L10.23 1.75zm4.6 19.44L2.81 9.17l6.36-6.36 12.02 12.02-6.36 6.36zm-7.31.29C4.25 19.94 1.91 16.76 1.55 13H.05C.56 19.16 5.71 24 12 24l.66-.03-3.81-3.81-1.33 1.32z"/></svg>
